T: Jenny Dang The Weaver
M: 4/4
L: 1/8
K: Dmaj
|:dA A/A/A AFAB | dA A/A/A f2 ef | dB B/B/B BABd | ABde faef:|
|:d2 fd efge | defd e/e/e dB | A2 fd efge |1 aA A/A/A f2 ef :|2 abag fd d2 |]
